assets/icons/qvision/cast_for_education.svg

<svg xmlns="http://www.w3.org/2000/svg" enable-background="new 0 0 24 24" height="24" viewBox="0 0 24 24" width="24"><g><path d="M21,3H3C1.9,3,1,3.9,1,5v3h2V5h18v14h-7v2h7c1.1,0,2-0.9,2-2V5C23,3.9,22.1,3,21,3z M1,18v3h3C4,19.34,2.66,18,1,18z M1,14 v2c2.76,0,5,2.24,5,5h2C8,17.13,4.87,14,1,14z M1,10v2c4.97,0,9,4.03,9,9h2C12,14.92,7.07,10,1,10z M11,11.09v2L14.5,15l3.5-1.91 v-2L14.5,13L11,11.09z M14.5,6L9,9l5.5,3L20,9L14.5,6z"/><path d="M0,0h24v24H0V0z" fill="none"/></g></svg>

<svg width="24" height="24" viewBox="0 0 24 24" fill="none" xmlns="http://www.w3.org/2000/svg">
<g clip-path="url(#clip0_147_2930)">
<path d="M21 3H3C1.9 3 1 3.9 1 5V8H3V5H21V19H14V21H21C22.1 21 23 20.1 23 19V5C23 3.9 22.1 3 21 3ZM1 18V21H4C4 19.34 2.66 18 1 18ZM1 14V16C3.76 16 6 18.24 6 21H8C8 17.13 4.87 14 1 14ZM1 10V12C5.97 12 10 16.03 10 21H12C12 14.92 7.07 10 1 10ZM11 11.09V13.09L14.5 15L18 13.09V11.09L14.5 13L11 11.09ZM14.5 6L9 9L14.5 12L20 9L14.5 6Z" fill="#323232"/>
</g>
<defs>
<clipPath id="clip0_147_2930">
<rect width="24" height="24" fill="white"/>
</clipPath>
</defs>
</svg>
